X: 1031
M: 6/8
L: 1/8
K: F
c/c/ |\
c2c/c/ c2c/c/ | c2c/c/ czc | (d2c) (A2F) | (F3 E2)c/c/ |\
c2c/c/ c2c/c/ | c2c/c/ czc | (e2d) (cBG) | (E3 F) zf |
g2f c2_e | d2z z2d | _e2d A2c | B2z z2c |\
(d2c) (d2c) | (a3 f2)z | edc BAG | F3 z2 :|
|: c/d/ |\
e3- ef^f | g3- g=fd | c3- cd^d | (e3 d)c=B |\
|: z |\
c'2z e2z | f2z a2z | g2z b2z | abc' f2z |\
c'2z e2z | f2z g2z | a2z =b2b | c'2c c2 :|
|: A/c/ |\
(f3 e)GB | (d3 c)FA | (c3 B)^FG | BAG FAc |\
(f3 e)GB | (d3 c)FA | (c3 B)GA | F3 z2 :|
|: [K:Bb] B/c/ |\
d2d d2d | d2d d2d | g3- gfe | c3 z2c |\
f3- fec | e3- edB | d3- dcA | B3 z2 :|

